resources/assets/rockets/down-right-rocket.svg

<?xml version="1.0" encoding="UTF-8"?>
<svg width="406px" height="458px" viewBox="0 0 406 458" version="1.1" xmlns="http://www.w3.org/2000/svg" xmlns:xlink="http://www.w3.org/1999/xlink">
    <!-- Generator: Sketch 52.5 (67469) - http://www.bohemiancoding.com/sketch -->
    <title>Rocket Stream 1</title>
    <desc>Created with Sketch.</desc>
    <defs>
        <path d="M15.3209487,501.902693 C14.8688891,501.902693 14.4078283,501.788742 13.987773,501.54697 C12.7096045,500.815708 12.2715468,499.196625 13.0096441,497.929302 L18.6633892,488.226697 C19.4014864,486.962347 21.0357018,486.525373 22.3148704,487.258617 C23.5930388,487.989879 24.0300964,489.608962 23.2929993,490.874304 L17.6382541,500.576908 C17.1431888,501.428066 16.2450705,501.902693 15.3209487,501.902693 Z M29.3209487,509.902693 C28.867889,509.902693 28.4078283,509.789729 27.987773,509.547948 C26.7096045,508.816659 26.2715468,507.198508 27.0096441,505.930147 L32.6633892,496.227186 C33.4014864,494.962789 35.0357018,494.524808 36.3148704,495.25907 C37.5930388,495.989369 38.0300964,497.609502 37.2929993,498.87489 L31.6382541,508.578841 C31.1431888,509.428048 30.2450705,509.902693 29.3209487,509.902693 Z M18.2951491,513.902693 C17.8465182,513.902693 17.3919451,513.785894 16.9750056,513.539092 C15.7093316,512.788531 15.275556,511.12897 16.0054478,509.830977 L28.7126957,487.260327 C29.4425875,485.963351 31.0578569,485.516467 32.3274923,486.267028 C33.5931663,487.015557 34.0269419,488.676135 33.2960597,489.973112 L20.5898022,512.544777 C20.0995763,513.416199 19.2102373,513.902693 18.2951491,513.902693 Z M42.7618703,501.927609 C42.3697758,501.927609 41.9776813,501.841609 41.61452,501.667609 C40.8572689,501.305609 40.3135247,500.607609 40.1479071,499.781609 C40.0062343,499.071609 38.0108426,489.122609 36.0473772,478.604609 C26.0085615,482.319609 16.5194763,485.964609 16.3528611,486.028609 C15.5537067,486.336609 14.6577758,486.239609 13.9404325,485.771609 C13.2240869,485.302609 12.7761214,484.517609 12.7352159,483.661609 C12.6873265,482.662609 11.6497228,459.087609 18.4160961,447.254609 C23.64502,438.111609 39.1731583,429.690609 43.8084532,427.327609 C48.4347689,424.967609 63.9629071,417.516609 69.5140869,420.667609 C75.0552896,423.887609 76.4869832,441.084609 76.7932758,446.278609 C77.1005661,451.481609 77.6981859,469.168609 72.469262,478.311609 C65.7028887,490.143609 44.8809763,501.158609 43.9980154,501.622609 C43.6109094,501.824609 43.1868887,501.927609 42.7618703,501.927609 Z M41.1266468,476.738609 C42.46755,483.943609 43.8493588,491.020609 44.6604855,495.127609 C50.5977735,491.663609 63.2944509,483.609609 67.843944,475.653609 C74.7509924,463.573609 70.7941306,428.142609 66.8422574,425.292609 C62.454391,423.346609 29.9504578,437.833609 23.0414141,449.912609 C18.5128726,457.831609 17.9771099,472.743609 17.9910776,479.682609 C21.8661283,478.205609 28.3880661,475.734609 35.0636491,473.268609 C33.978156,467.293609 33.0064002,461.610609 32.4975753,457.834609 C31.7303472,452.133609 34.6545938,447.210609 39.6091514,445.862609 L40.0251905,445.749609 C44.6624809,444.489609 49.5591721,447.338609 51.4937044,452.204609 C53.6257804,451.880609 55.7957689,452.153609 57.7133403,453.004609 C60.312338,454.156609 62.1341306,456.236609 62.8444901,458.860609 L62.9572297,459.275609 C64.3769509,464.524609 61.3220062,469.921609 56.0032896,471.566609 C52.5662274,472.628609 47.0080638,474.592609 41.1266468,476.738609 Z M42.3159002,450.786609 C42.0225776,450.786609 41.7242666,450.824609 41.420967,450.906609 L41.0059256,451.020609 C38.3091537,451.753609 37.4441514,454.612609 37.7823703,457.120609 C38.2502896,460.594609 39.1382389,465.820609 40.1479071,471.405609 C45.7729164,469.360609 51.048732,467.505609 54.4319187,466.459609 C56.9900108,465.668609 58.47558,463.128609 57.8121122,460.677609 L57.6993726,460.261609 C57.3382067,458.927609 56.3345247,458.236609 55.5553242,457.891609 C54.3690638,457.364609 52.9144233,457.275609 51.5645408,457.642609 L50.3702988,457.967609 C49.6868772,458.153609 48.9595569,458.059609 48.345974,457.706609 C47.732391,457.354609 47.2834279,456.771609 47.0988541,456.087609 L46.774603,454.889609 C46.1969371,452.753609 44.406073,450.786609 42.3159002,450.786609 Z" id="path-1"></path>
    </defs>
    <g id="Desktop" stroke="none" stroke-width="1" fill="none" fill-rule="evenodd">
        <g id="1-Home" transform="translate(-590.000000, -1795.000000)">
            <g id="Home/Sections" transform="translate(0.000000, 1020.000000)">
                <g id="Feature-Details-1" transform="translate(0.000000, 463.000000)">
                    <g id="Home-Feature-Details-Image" transform="translate(578.000000, 0.000000)">
                        <g id="Rocket-Stream-1" transform="translate(216.000000, 512.000000) scale(-1, 1) translate(-216.000000, -512.000000) translate(0.000000, 251.000000)">
                            <path d="M130.654892,28 C90.0307808,85.5580852 92.2747155,200.58015 236.996902,269.203296 C333.478359,314.952061 382.812725,373.217629 385,444" id="Path-4" stroke="#F04C23" stroke-width="4" stroke-dasharray="13,24" transform="translate(246.500000, 236.000000) scale(-1, 1) rotate(-14.000000) translate(-246.500000, -236.000000) "></path>
                            <mask id="mask-2" fill="white">
                                <use xlink:href="#path-1"></use>
                            </mask>
                            <use id="Fill-27" fill="#F04C23" transform="translate(44.818278, 466.902693) rotate(-197.000000) translate(-44.818278, -466.902693) " xlink:href="#path-1"></use>
                        </g>
                    </g>
                </g>
            </g>
        </g>
    </g>
</svg>

<svg xmlns="http://www.w3.org/2000/svg" width="406" height="458" xmlns:xlink="http://www.w3.org/1999/xlink"><title>Rocket Stream 1</title><desc>Created with Sketch.</desc><defs><path id="a" d="M15.32 501.9c-.45 0-.9-.1-1.33-.35-1.3-.73-1.73-2.35-1-3.62l5.66-9.7c.74-1.27 2.38-1.7 3.65-.97 1.3.73 1.73 2.35 1 3.6l-5.66 9.72c-.5.85-1.4 1.32-2.32 1.32zm14 8c-.45 0-.9-.1-1.33-.35-1.3-.73-1.73-2.35-1-3.62l5.66-9.7c.74-1.27 2.38-1.7 3.65-.97 1.3.73 1.73 2.35 1 3.6l-5.66 9.72c-.5.85-1.4 1.32-2.32 1.32zm-11.02 4c-.45 0-.9-.1-1.32-.36-1.27-.75-1.7-2.4-.97-3.7l12.7-22.58c.74-1.3 2.36-1.74 3.63-1 1.26.76 1.7 2.42.97 3.7l-12.7 22.58c-.5.88-1.4 1.36-2.3 1.36zm24.46-11.97c-.4 0-.78-.1-1.15-.26-.74-.36-1.3-1.06-1.45-1.9-.14-.7-2.14-10.65-4.1-21.17-10.04 3.72-19.53 7.36-19.7 7.43-.8.3-1.7.2-2.4-.26-.73-.47-1.17-1.25-1.2-2.1-.06-1-1.1-24.58 5.67-36.42 5.23-9.14 20.75-17.56 25.4-19.92 4.6-2.36 20.14-9.8 25.7-6.66 5.54 3.22 6.97 20.4 7.27 25.6.3 5.2.9 22.9-4.33 32.04-6.77 11.84-27.6 22.86-28.47 23.32-.4.2-.8.3-1.24.3zm-1.63-25.2c1.34 7.2 2.72 14.3 3.53 18.4 5.94-3.47 18.63-11.52 23.18-19.48 6.9-12.08 2.95-47.5-1-50.36-4.4-1.95-36.9 12.53-43.8 24.6-4.53 7.93-5.06 22.84-5.05 29.78 3.87-1.47 10.4-3.95 17.06-6.4-1.08-6-2.05-11.67-2.56-15.45-.77-5.7 2.15-10.62 7.1-11.97l.43-.1c4.63-1.27 9.53 1.58 11.46 6.44 2.13-.32 4.3-.05 6.2.8 2.6 1.16 4.43 3.24 5.14 5.86l.12.42c1.42 5.24-1.64 10.64-6.96 12.3-3.43 1.05-9 3-14.87 5.16zm1.2-25.94c-.3 0-.6.02-.9.1l-.42.12c-2.7.73-3.56 3.6-3.22 6.1.47 3.47 1.36 8.7 2.37 14.3 5.62-2.06 10.9-3.9 14.28-4.96 2.56-.8 4.05-3.33 3.38-5.78l-.1-.42c-.36-1.33-1.37-2.02-2.14-2.37-1.2-.54-2.65-.62-4-.26l-1.2.33c-.67.18-1.4.1-2-.26-.63-.35-1.08-.93-1.26-1.6l-.33-1.2c-.57-2.15-2.36-4.1-4.45-4.1z"/></defs><g fill="none"><g><g><g><g><g transform="matrix(-1 0 0 1 420 -61)"><path stroke="#F04C23" stroke-width="4" d="M409.2 62.27c25.48 65.67-4.53 176.7-161.52 208.24-104.66 21.03-166.6 65.6-185.86 133.74" stroke-dasharray="13,24"/><mask><use xlink:href="#a"/></mask><use fill="#F04C23" transform="rotate(-197 44.818 466.903)" xlink:href="#a"/></g></g></g></g></g></g></svg>
